icons/foot.svg

<svg width="48" height="48" viewBox="0 0 48 48" fill="none" xmlns="http://www.w3.org/2000/svg">
<path fill-rule="evenodd" clip-rule="evenodd" d="M37.5001 21.7953V10H39.5001V21.7953C39.5001 23.6641 40.1472 25.5134 40.9512 27.4205C41.514 28.7556 42.0001 30.3851 42.0001 32C42 34.3488 40.9457 35.9047 39.5547 36.8321C38.2192 37.7224 36.6333 38 35.5 38C34.1328 38 33.2331 37.7084 32.4724 37.3354C32.2372 37.2202 31.995 37.0857 31.7831 36.9681C31.6899 36.9164 31.6026 36.8679 31.5244 36.8258C31.2431 36.6743 30.9813 36.5479 30.6838 36.4487C30.4097 36.3573 29.8174 36.2933 28.988 36.2803C28.2002 36.268 27.318 36.3016 26.5443 36.3466C25.697 36.3958 24.9451 36.6971 24.0242 37.0662C23.7426 37.179 23.4452 37.2982 23.1244 37.4185C22.1736 37.7749 20.9113 38 19 38C17.0172 38 16.0696 37.8856 15.4186 37.6066C15.1484 37.4909 14.9263 37.3397 14.7945 37.2501C14.7684 37.2323 14.7459 37.217 14.7272 37.2048C14.6914 37.1815 14.6538 37.1577 14.6112 37.1333C14.3826 37.2905 14.0979 37.4468 13.6733 37.5795C12.8523 37.836 11.5142 38 9.00002 38C8.14176 38 7.40616 37.7941 6.83244 37.3598C6.256 36.9235 5.94273 36.3322 5.79354 35.7471C5.50914 34.6317 5.77999 33.4055 6.06372 32.6489C6.21008 32.2586 6.5832 32 7.00005 32H10.6492L11.277 31.4978C12.4421 30.5657 13.7675 29.9144 15.1095 29.4342C16.8428 28.814 19.0385 27.8645 21.0283 26.6013C22.9723 25.3673 24.6286 23.8912 25.5228 22.2131L26.5046 11.9052L28.4956 12.0948L27.4955 22.5948C27.4838 22.7175 27.4496 22.837 27.3944 22.9472C26.2869 25.1622 24.2374 26.9331 22.1001 28.2899C19.947 29.6567 17.6057 30.6652 15.7833 31.3173C14.5821 31.7471 13.4705 32.3042 12.5264 33.0595L11.8986 33.5617C11.544 33.8454 11.1034 34 10.6492 34H7.75138C7.66313 34.4344 7.63936 34.8915 7.73153 35.2529C7.79483 35.5012 7.9003 35.6598 8.03949 35.7652C8.18138 35.8726 8.45828 36 9.00002 36C11.4859 36 12.5644 35.8306 13.0767 35.6705C13.3033 35.5997 13.4093 35.5335 13.4891 35.4776C13.4944 35.4739 13.5052 35.4657 13.5207 35.454C13.6074 35.3882 13.8389 35.2125 14.0528 35.1056C14.29 34.987 14.5646 34.9674 14.8162 35.0513C15.2854 35.2077 15.5809 35.3738 15.8197 35.5296C15.8921 35.5768 15.9455 35.6126 15.9877 35.641C16.0891 35.7091 16.126 35.7339 16.2064 35.7684C16.4304 35.8644 16.9827 36 19 36C20.7618 36 21.7673 35.7913 22.4224 35.5457C22.637 35.4653 22.8649 35.3731 23.1042 35.2763C24.0701 34.8856 25.2208 34.4201 26.4283 34.3499C27.2248 34.3037 28.1616 34.2672 29.0192 34.2806C29.8353 34.2933 30.7148 34.3508 31.3162 34.5513C31.7687 34.7021 32.1444 34.8882 32.4726 35.0648C32.6001 35.1335 32.7113 35.1954 32.8154 35.2533C32.9997 35.3558 33.1617 35.446 33.3527 35.5396C33.8669 35.7916 34.4672 36 35.5 36C36.3667 36 37.5309 35.7776 38.4453 35.1679C39.3043 34.5953 40 33.6512 40.0001 32C40.0001 30.7563 39.6175 29.4055 39.1082 28.1974C38.2929 26.2634 37.5001 24.0951 37.5001 21.7953Z" fill="black"/>
<path fill-rule="evenodd" clip-rule="evenodd" d="M34 23C34.5523 23 35 23.4477 35 24H34C35 24 35 24 35 24L35 24.0018L35 24.0038L35 24.0088L34.9999 24.022C34.9997 24.0323 34.9995 24.0454 34.999 24.0614C34.9982 24.0932 34.9965 24.1362 34.9935 24.1892C34.9874 24.295 34.9756 24.4415 34.9528 24.6194C34.9074 24.9735 34.8172 25.4608 34.6362 26.0037C34.2752 27.0868 33.5321 28.447 32.0145 29.3575C31.5409 29.6416 30.9267 29.4881 30.6425 29.0145C30.3584 28.5409 30.512 27.9267 30.9855 27.6425C31.968 27.053 32.4749 26.1632 32.7388 25.3713C32.8704 24.9767 32.9364 24.6202 32.9691 24.365C32.9853 24.2382 32.9931 24.1385 32.9968 24.0745C32.9986 24.0425 32.9994 24.0196 32.9998 24.0067L33 23.9954C33.0025 23.4452 33.4493 23 34 23Z" fill="black"/>
</svg>

<svg
  xmlns="http://www.w3.org/2000/svg"
  width="24"
  height="24"
  viewBox="0 0 24 24"
  fill="none"
  stroke="currentColor"
  stroke-width="2"
  stroke-linecap="round"
  stroke-linejoin="round"
>
  <path
    fill-rule="evenodd"
    d="M37.5 21.795V10h2v11.795c0 1.87.647 3.718 1.451 5.625.563 1.336 1.05 2.965 1.05 4.58-.001 2.349-1.055 3.905-2.446 4.832C38.219 37.722 36.633 38 35.5 38c-1.367 0-2.267-.292-3.028-.665-.235-.115-.477-.25-.689-.367q-.14-.078-.259-.142a5 5 0 0 0-.84-.377c-.274-.092-.867-.156-1.696-.169-.788-.012-1.67.022-2.444.067-.847.049-1.599.35-2.52.72q-.42.17-.9.352c-.95.356-2.213.581-4.124.581-1.983 0-2.93-.114-3.581-.393-.27-.116-.493-.267-.625-.357a4 4 0 0 0-.183-.117 3.4 3.4 0 0 1-.938.447c-.82.256-2.159.42-4.673.42-.858 0-1.594-.206-2.168-.64-.576-.437-.89-1.028-1.038-1.613-.285-1.115-.014-2.341.27-3.098A1 1 0 0 1 7 32h3.65l.627-.502c1.165-.932 2.49-1.584 3.833-2.064 1.733-.62 3.928-1.57 5.918-2.833 1.944-1.234 3.6-2.71 4.495-4.388l.982-10.308 1.99.19-1 10.5a1 1 0 0 1-.1.352c-1.108 2.215-3.158 3.986-5.295 5.343-2.153 1.367-4.494 2.375-6.317 3.027-1.2.43-2.312.987-3.257 1.742l-.627.503a2 2 0 0 1-1.25.438H7.751c-.088.434-.112.892-.02 1.253.064.248.17.407.308.512.142.108.42.235.961.235 2.486 0 3.564-.17 4.077-.33.226-.07.332-.137.412-.192l.032-.024c.086-.066.318-.242.532-.348a1 1 0 0 1 .763-.055c.47.157.765.323 1.004.479l.168.111c.101.068.138.093.218.127.224.096.777.232 2.794.232 1.762 0 2.767-.209 3.422-.454.215-.08.443-.173.682-.27.966-.39 2.117-.856 3.324-.926a37 37 0 0 1 2.591-.07c.816.013 1.696.07 2.297.271.453.151.828.337 1.157.514l.342.188c.185.103.347.193.538.287.514.252 1.114.46 2.147.46.867 0 2.03-.222 2.945-.832C39.305 34.595 40 33.65 40 32c0-1.244-.383-2.594-.892-3.803-.815-1.934-1.608-4.102-1.608-6.402"
    clip-rule="evenodd"
  />
  <path
    fill-rule="evenodd"
    d="M34 23a1 1 0 0 1 1 1h-1 1v.022l-.001.04q0 .047-.006.127a7.383 7.383 0 0 1-.357 1.814c-.36 1.084-1.104 2.444-2.622 3.355a1 1 0 0 1-1.029-1.716c.983-.589 1.49-1.479 1.754-2.27a5.4 5.4 0 0 0 .258-1.297l.003-.068v-.012A1 1 0 0 1 34 23"
    clip-rule="evenodd"
  />
</svg>
